build/img/arrow-left-tablet.svg

<svg width="135" height="45" viewBox="0 0 135 45" fill="none" xmlns="http://www.w3.org/2000/svg">
<path d="M12.479 24.9374C12.7357 25.213 13.1032 25.3774 13.5233 25.3177C13.8918 25.2661 14.2601 25.2157 14.6289 25.1629C11.6039 26.642 8.67489 28.305 5.82866 30.1498C8.04055 26.2388 10.3038 22.3597 12.633 18.5211C12.3433 20.2134 12.0549 21.906 11.7652 23.5984C11.6497 24.2749 12.0043 24.7297 12.479 24.9374ZM85.3942 34.7103C76.3557 33.3274 79.1903 22.9432 85.2809 19.9839C89.2004 18.0804 94.1617 18.0227 98.3982 18.44C99.9967 26.541 94.7787 36.1454 85.3942 34.7103ZM2.72941 35.4711C9.61582 30.3548 17.0354 26.4401 25.098 23.6532C26.4909 23.1703 25.9426 20.909 24.4899 21.1113C21.9083 21.476 19.3284 21.8384 16.7484 22.2008C26.1975 12.2806 38.9346 6.84624 52.2719 4.60113C66.0049 2.28748 87.4223 0.299915 96.3985 13.5433C96.8707 14.2392 97.2597 14.9806 97.5818 15.7502C91.5323 15.2631 84.6021 15.92 80.2152 20.4075C76.6281 24.0769 75.3038 30.3828 79.0705 34.3997C88.7891 44.7691 103.334 30.1025 101.365 18.8399C115.272 21.2512 127.082 30.8709 133.364 43.6588C133.799 44.5437 135.182 44.0379 134.803 43.0832C129.089 28.6919 115.754 18.3271 100.655 16.1132C95.5921 0.905312 75.2569 0.0101343 61.9667 0.840615C44.6586 1.91821 27.2131 7.4853 14.9505 20.299C15.4017 17.6625 15.8517 15.0257 16.3029 12.3892C16.5097 11.1823 14.7438 10.2103 14.0273 11.354C9.40078 18.7289 4.98865 26.2291 0.794096 33.8649C0.139972 35.056 1.73618 36.2098 2.72941 35.4711Z" fill="#8DD9E5"/>
<path d="M12.479 24.9374C12.7357 25.213 13.1032 25.3774 13.5233 25.3177C13.8918 25.2661 14.2601 25.2157 14.6289 25.1629C11.6039 26.642 8.67489 28.305 5.82866 30.1498C8.04055 26.2388 10.3038 22.3597 12.633 18.5211C12.3433 20.2134 12.0549 21.906 11.7652 23.5984C11.6497 24.2749 12.0043 24.7297 12.479 24.9374ZM85.3942 34.7103C76.3557 33.3274 79.1903 22.9432 85.2809 19.9839C89.2004 18.0804 94.1617 18.0227 98.3982 18.44C99.9967 26.541 94.7787 36.1454 85.3942 34.7103ZM2.72941 35.4711C9.61582 30.3548 17.0354 26.4401 25.098 23.6532C26.4909 23.1703 25.9426 20.909 24.4899 21.1113C21.9083 21.476 19.3284 21.8384 16.7484 22.2008C26.1975 12.2806 38.9346 6.84624 52.2719 4.60113C66.0049 2.28748 87.4223 0.299915 96.3985 13.5433C96.8707 14.2392 97.2597 14.9806 97.5818 15.7502C91.5323 15.2631 84.6021 15.92 80.2152 20.4075C76.6281 24.0769 75.3038 30.3828 79.0705 34.3997C88.7891 44.7691 103.334 30.1025 101.365 18.8399C115.272 21.2512 127.082 30.8709 133.364 43.6588C133.799 44.5437 135.182 44.0379 134.803 43.0832C129.089 28.6919 115.754 18.3271 100.655 16.1132C95.5921 0.905312 75.2569 0.0101343 61.9667 0.840615C44.6586 1.91821 27.2131 7.4853 14.9505 20.299C15.4017 17.6625 15.8517 15.0257 16.3029 12.3892C16.5097 11.1823 14.7438 10.2103 14.0273 11.354C9.40078 18.7289 4.98865 26.2291 0.794096 33.8649C0.139972 35.056 1.73618 36.2098 2.72941 35.4711Z" fill="#5879E8"/>
</svg>

<svg width="135" height="45" fill="none" xmlns="http://www.w3.org/2000/svg"><path d="M12.479 24.937c.257.276.624.44 1.044.38.369-.05.737-.101 1.106-.154a84.014 84.014 0 00-8.8 4.987 439.083 439.083 0 016.804-11.629l-.868 5.077c-.115.677.24 1.132.714 1.34zm72.915 9.773c-9.038-1.383-6.204-11.767-.113-14.726 3.92-1.904 8.88-1.961 13.117-1.544 1.599 8.101-3.62 17.705-13.004 16.27zm-82.665.761a82.257 82.257 0 0122.369-11.818c1.393-.483.845-2.744-.608-2.542-2.582.365-5.162.727-7.742 1.09 9.45-9.92 22.187-15.355 35.524-17.6C66.005 2.287 87.422.3 96.399 13.543a12.54 12.54 0 011.183 2.207c-6.05-.487-12.98.17-17.367 4.657-3.587 3.67-4.911 9.976-1.145 13.993 9.72 10.37 24.264-4.297 22.295-15.56 13.907 2.411 25.717 12.03 31.999 24.819.435.885 1.818.379 1.439-.576-5.714-14.391-19.049-24.756-34.148-26.97C95.592.905 75.257.01 61.967.841 44.659 1.918 27.213 7.485 14.95 20.299c.452-2.636.902-5.273 1.353-7.91.207-1.207-1.56-2.179-2.276-1.035A450.517 450.517 0 00.794 33.864c-.654 1.192.942 2.346 1.935 1.607z" fill="#8DD9E5"/><path d="M12.479 24.937c.257.276.624.44 1.044.38.369-.05.737-.101 1.106-.154a84.014 84.014 0 00-8.8 4.987 439.083 439.083 0 016.804-11.629l-.868 5.077c-.115.677.24 1.132.714 1.34zm72.915 9.773c-9.038-1.383-6.204-11.767-.113-14.726 3.92-1.904 8.88-1.961 13.117-1.544 1.599 8.101-3.62 17.705-13.004 16.27zm-82.665.761a82.257 82.257 0 0122.369-11.818c1.393-.483.845-2.744-.608-2.542-2.582.365-5.162.727-7.742 1.09 9.45-9.92 22.187-15.355 35.524-17.6C66.005 2.287 87.422.3 96.399 13.543a12.54 12.54 0 011.183 2.207c-6.05-.487-12.98.17-17.367 4.657-3.587 3.67-4.911 9.976-1.145 13.993 9.72 10.37 24.264-4.297 22.295-15.56 13.907 2.411 25.717 12.03 31.999 24.819.435.885 1.818.379 1.439-.576-5.714-14.391-19.049-24.756-34.148-26.97C95.592.905 75.257.01 61.967.841 44.659 1.918 27.213 7.485 14.95 20.299c.452-2.636.902-5.273 1.353-7.91.207-1.207-1.56-2.179-2.276-1.035A450.517 450.517 0 00.794 33.864c-.654 1.192.942 2.346 1.935 1.607z" fill="#5879E8"/></svg>
